brandFactory_export/2.Regular/Programar alarma _2Regular.svg

<?xml version="1.0" encoding="UTF-8"?>
<svg width="24px" height="24px" viewBox="0 0 24 24" version="1.1" xmlns="http://www.w3.org/2000/svg" xmlns:xlink="http://www.w3.org/1999/xlink">
    <title>2.Regular/Programar alarma _2Regular</title>
    <g id="Symbols" stroke="none" stroke-width="1" fill="none" fill-rule="evenodd">
        <g id="2.Regular/Programar-alarma-_2Regular" fill="#5CB615" fill-rule="nonzero">
            <path d="M4.66218487,18.692437 L21.2571429,18.692437 C19.5193277,16.1815126 19.7042017,12.8168067 19.7142857,12.6420168 L19.7142857,8.12436975 C19.7142857,5.91596639 19.092437,4.22521008 17.8689076,3.08571429 C15.9260504,1.28067227 13.0420168,1.45546218 13.0117647,1.44537815 C12.9915966,1.45546218 12.9714286,1.44537815 12.9613445,1.44537815 C12.9411765,1.44537815 12.9243697,1.45546218 12.9042017,1.44537815 C12.7294118,1.43529412 8.65882353,1.21344538 6.96134454,4.55462185 C10.9344538,4.65882353 13.2436975,6.76302521 13.2436975,11.1159664 C13.2436975,15.6033613 10.7966387,17.697479 6.61848739,17.697479 C6.14117647,17.697479 5.69411765,17.6605042 5.27058824,17.610084 C5.09915966,17.9865546 4.89411765,18.3495798 4.66218487,18.692437 Z M14.6252101,21.5697479 C15.0117647,21.1428571 15.1294118,20.5647059 15.1663866,20.1411765 L10.7495798,20.1411765 C10.7798319,20.5647059 10.8941176,21.1462185 11.2840336,21.5798319 C11.6537815,21.9764706 12.1983193,22.1781513 12.9546218,22.1781513 C13.7109244,22.1747899 14.2554622,21.9731092 14.6252101,21.5697479 L14.6252101,21.5697479 Z M1.45546218,11.1159664 C1.45546218,14.6184874 3.09915966,16.2487395 6.62184874,16.2487395 C10.1445378,16.2487395 11.7882404,14.6184874 11.7882404,11.1159664 C11.7915966,7.61344538 10.1478992,5.98319328 6.62184874,5.98319328 C3.09915966,5.98319328 1.45546218,7.61344538 1.45546218,11.1159664 L1.45546218,11.1159664 Z M23.3546218,18.8571429 C23.5966387,19.0487395 23.6840336,19.3680672 23.5764706,19.6571429 C23.4789916,19.9495798 23.2033613,20.1411765 22.897479,20.1378151 L16.6252101,20.1378151 C16.5848739,20.7966387 16.4033613,21.7714286 15.7142857,22.5310924 C15.0722689,23.2537815 14.1411765,23.6201681 12.9546218,23.6201681 C11.7680672,23.6201681 10.8369748,23.2537815 10.194958,22.5310924 C9.50588235,21.7680672 9.33109244,20.7932773 9.2907563,20.1378151 L3.02184874,20.1378151 C2.71596639,20.1411765 2.44033613,19.9462185 2.34285714,19.6571429 C2.23529412,19.3680672 2.32605042,19.0453782 2.56806723,18.8571429 C3.06218487,18.4504202 3.47226891,17.9226891 3.80840336,17.2941176 C1.36806723,16.4907563 0,14.4739496 0,11.1159664 C0,7.12268908 1.94285714,5.02857143 5.33109244,4.62184874 C7.1394958,-0.127731092 12.4403361,-0.0201680672 12.9546218,0.0100840336 C13.3915966,-0.0201680672 16.5579832,-0.107563025 18.8571429,2.02689076 C20.3932773,3.44537815 21.1697479,5.49243697 21.1697479,8.12436975 L21.1697479,12.6890756 C21.1630252,12.7764706 20.9478992,16.897479 23.3546218,18.8571429 Z M8.14453782,13.8319328 L6.10756303,11.8084034 C5.9697479,11.6739496 5.89243697,11.4890756 5.89243697,11.297479 L5.89243697,8.55462185 C5.89243697,8.15462185 6.21848739,7.83193277 6.62184874,7.83193277 C7.02184874,7.83193277 7.3512605,8.15462185 7.3512605,8.55462185 L7.3512605,10.994958 L9.17647059,12.8067227 C9.17647059,12.8067227 9.77142857,13.287395 9.77142857,13.687395 C9.77142857,14.1445378 9.42184874,14.3361345 9.02184874,14.3462185 C8.65210084,14.3563025 8.28235294,13.9697479 8.14453782,13.8319328 L8.14453782,13.8319328 Z" id="Programar-alarma-_2Regular"></path>
        </g>
    </g>
</svg>

<svg width="24" height="24" viewBox="0 0 24 24" xmlns="http://www.w3.org/2000/svg"><path d="M4.662 18.692h16.595c-1.738-2.51-1.553-5.875-1.543-6.05V8.124c0-2.208-.622-3.899-1.845-5.038-1.943-1.805-4.827-1.63-4.857-1.64-.02.01-.04 0-.05 0-.02 0-.038.01-.058 0-.175-.01-4.245-.233-5.943 3.109 3.973.104 6.283 2.208 6.283 6.561 0 4.487-2.447 6.581-6.626 6.581-.477 0-.924-.036-1.347-.087-.172.377-.377.74-.609 1.082zm9.963 2.878c.387-.427.504-1.005.541-1.429H10.75c.03.424.144 1.005.534 1.439.37.396.914.598 1.67.598.757-.003 1.301-.205 1.671-.608zM1.455 11.116c0 3.502 1.644 5.133 5.167 5.133 3.523 0 5.166-1.63 5.166-5.133.004-3.503-1.64-5.133-5.166-5.133-3.523 0-5.167 1.63-5.167 5.133zm21.9 7.741c.242.192.329.511.221.8a.705.705 0 01-.679.48h-6.272c-.04.66-.222 1.634-.91 2.394-.643.723-1.574 1.09-2.76 1.09-1.187 0-2.118-.367-2.76-1.09-.69-.763-.864-1.738-.904-2.393H3.02a.71.71 0 01-.678-.48.701.701 0 01.225-.8c.494-.408.904-.935 1.24-1.564C1.368 16.491 0 14.474 0 11.116c0-3.993 1.943-6.087 5.331-6.494C7.14-.128 12.441-.02 12.955.01c.437-.03 3.603-.118 5.902 2.017 1.536 1.418 2.313 3.465 2.313 6.097v4.565c-.007.087-.222 4.208 2.185 6.168zm-15.21-5.025l-2.037-2.024a.715.715 0 01-.216-.51V8.554c0-.4.326-.723.73-.723.4 0 .73.323.73.723v2.44l1.824 1.812s.595.48.595.88c0 .458-.35.65-.75.66-.369.01-.739-.377-.876-.515z" fill="#5CB615" fill-rule="nonzero"/></svg>
